Collapse/img/game_icons/icon_tarkov.svg

<svg width="17" height="24" viewBox="0 0 17 24" fill="none" xmlns="http://www.w3.org/2000/svg">
<path fill-rule="evenodd" clip-rule="evenodd" d="M5.15498 2.31877C5.04043 2.40033 4.98792 2.534 4.97599 2.59063C4.88053 2.62462 4.68245 2.74695 4.65381 2.96445C4.62517 3.18194 4.40322 3.191 4.29582 3.16835C4.29582 2.81492 3.69918 2.93046 3.40086 3.03241C2.82808 3.14116 2.56556 3.50818 2.5059 3.67809C2.21951 3.92277 2.10018 4.25581 2.07631 4.39174H1.86152C1.66105 4.39174 1.49161 4.55033 1.43194 4.62962C1.40808 4.83352 1.33171 5.36366 1.21715 5.85301C1.10259 6.34237 0.988039 6.57074 0.873484 6.7991C0.844845 6.85619 0.816206 6.91329 0.787567 6.97446C0.673012 7.21913 0.644373 7.71076 0.644373 7.92598C0.608575 7.95997 0.508339 8.19785 0.393784 8.87751C0.279228 9.55717 0.441515 10.1122 0.536978 10.3048C0.644373 10.5427 0.96656 10.7806 1.43194 10.9505C1.80425 11.0864 1.84959 11.211 1.82572 11.2563H1.21715C1.21715 11.7094 1.23863 12.6496 1.32455 12.7856C1.43194 12.9555 1.46774 13.1254 1.50354 13.907C1.53934 14.6886 1.32455 15.6741 1.21715 16.1159C1.15352 16.3777 1.27838 16.7825 1.39072 17.1468C1.46799 17.3974 1.53934 17.6287 1.53934 17.7811C1.53934 18.1549 0.930762 19.2763 0.501179 19.922C0.157513 20.4386 0.0238657 22.8559 0 24H2.75649V21.6212C3.02405 20.5359 3.35772 20.2195 3.72381 19.8722C3.89651 19.7084 4.07643 19.5378 4.26002 19.2763C4.71825 18.6239 4.71825 17.8626 4.71825 17.3233C4.71825 17.1884 4.71825 17.0674 4.72541 16.9655C4.75404 16.5577 4.9044 16.3651 4.97599 16.3198C4.96406 16.3538 4.96167 16.4897 5.04759 16.7616C5.15498 17.1014 6.04995 17.8491 6.22894 17.883C6.37213 17.9102 6.55113 18.0756 6.62272 18.1549C6.55113 18.3475 6.45089 18.7938 6.62272 19.0385C6.77084 19.2494 6.71467 19.4765 6.66554 19.6751C6.64342 19.7645 6.62272 19.8482 6.62272 19.922C6.62272 20.037 6.57255 20.3425 6.5207 20.6582C6.46527 20.9956 6.40793 21.3448 6.40793 21.4852C6.40793 21.7571 6.40793 22.2669 6.62272 22.6067C6.79456 22.8786 6.76592 23.6488 6.73012 24H9.45081C9.43887 23.8981 9.42217 23.6058 9.45081 23.2524C9.47478 22.9565 9.40242 22.0815 9.34125 21.3418C9.31108 20.9769 9.28364 20.645 9.27181 20.4318C9.23602 19.7861 9.30761 19.5482 9.45081 19.1064C9.594 18.6646 9.6656 17.7811 9.594 17.6112C9.56278 17.5371 9.55198 17.4371 9.54082 17.3339C9.5264 17.2004 9.51137 17.0613 9.45081 16.9655C9.36489 16.8296 9.17635 16.9315 9.09282 16.9995C9.09282 16.9202 9.05702 16.714 8.91383 16.5237C8.73484 16.2858 8.52005 15.6062 8.34105 15.0285C8.20913 14.6027 8.13554 14.3984 8.04864 14.1571C8.01763 14.0711 7.98492 13.9803 7.94727 13.873C7.83271 13.5468 7.46996 12.8988 7.3029 12.6157V11.4262C7.31483 11.3469 7.38881 11.1884 7.58928 11.1884C7.71941 11.1884 7.83987 11.1517 7.9557 11.1165C8.06294 11.0838 8.1662 11.0524 8.26946 11.0524C8.39706 11.0524 8.38568 10.9925 8.36293 10.8725C8.34738 10.7906 8.32652 10.6806 8.34105 10.5427C8.37685 10.2029 8.52005 9.79505 8.69904 9.35327C8.86176 8.95165 8.72862 8.77472 8.64928 8.66927C8.64135 8.65873 8.63395 8.6489 8.62744 8.63963C8.55584 8.53768 8.34105 8.46971 8.05466 8.46971C7.78319 8.46971 8.02638 8.16436 8.14393 8.01677C8.15039 8.00866 8.15647 8.00103 8.16206 7.99395C8.26946 7.85802 8.41265 7.79005 8.52005 7.892C8.62744 7.99395 9.05702 8.23183 9.7014 8.46971C10.1388 8.63118 10.1473 8.62042 10.2756 8.45867C10.3363 8.38213 10.4239 8.27178 10.5964 8.12988C11.0259 7.77646 11.5391 6.84985 11.7419 6.43073H12.0283V5.98894L12.3863 5.54716V5.17335L12.7085 4.49369H14.9638V4.42572H15.0354V4.32377H14.8922V4.22182H15.0354V4H17V3.20233H15.1786V2.99843H11.3123V2.8625H11.4197V2.6586L11.2407 2.48868V1.94495C10.6202 1.95628 9.38637 1.97214 9.41501 1.94495C9.52956 1.89058 9.46274 1.78637 9.41501 1.74105L8.66324 1.26529C8.49141 1.15654 8.28139 1.08405 8.19786 1.06139C8.19786 0.245795 7.38643 0.0192436 6.98071 0.00791765C5.83516 -0.0736418 5.28625 0.495009 5.15498 0.78953C4.8686 1.22451 5.03566 1.83168 5.15498 2.08089C5.09771 2.18963 5.13112 2.28479 5.15498 2.31877ZM8.94965 2.08078H8.44847C8.33392 2.40702 8.4962 2.60185 8.59167 2.65849V2.79443L8.30528 2.99832V3.23621H8.52007L8.73486 2.99832H9.30764V2.65849H8.94965V2.08078ZM9.80882 2.93036V2.79443H10.0236V2.86239H10.1668V2.93036H9.80882ZM8.55587 4.79943L8.23368 4.42562H8.94965L8.80646 4.69748V4.83341H8.73486V4.93536H8.59167L8.55587 4.79943ZM10.668 5.37714V5.03731H10.5248V5.20723H10.4532V5.30918H10.1668V5.37714H10.668ZM9.59402 6.19274L9.95201 6.97435C10.1668 6.8724 10.6107 6.61413 10.668 6.39664C10.7253 6.17914 10.7396 5.96618 10.7396 5.88689H10.5964V5.71697H10.7396L10.668 5.51307H10.1668C10.1907 5.69432 10.1095 6.08399 9.59402 6.19274ZM8.30528 8.77545C8.07617 8.80264 7.97116 9.01334 7.94729 9.11529C8.23368 8.81623 8.40074 8.94537 8.44847 9.04732C8.56303 8.85701 8.40074 8.78678 8.30528 8.77545ZM1.46776 5.88689C1.53936 6.00017 1.61095 6.28109 1.32457 6.49859C1.3365 6.48726 1.38184 6.34906 1.46776 5.88689Z" fill="#515B76"/>
</svg>

<svg width="17" height="24" fill="none" xmlns="http://www.w3.org/2000/svg"><path fill-rule="evenodd" clip-rule="evenodd" d="M5.155 2.319a.49.49 0 00-.179.272c-.095.034-.294.156-.322.373-.029.218-.25.227-.358.204 0-.353-.597-.238-.895-.136-.573.11-.835.476-.895.646a1.346 1.346 0 00-.43.714h-.214c-.201 0-.37.158-.43.238-.024.204-.1.734-.215 1.223-.114.49-.229.718-.344.946a7.08 7.08 0 00-.085.175c-.115.245-.144.737-.144.952-.035.034-.136.272-.25.952-.115.68.048 1.234.143 1.427.107.238.43.476.895.646.372.135.418.26.394.305h-.609c0 .453.022 1.394.108 1.53.107.17.143.34.179 1.121.035.782-.18 1.767-.287 2.209-.063.262.061.666.174 1.03.077.251.148.483.148.635 0 .374-.608 1.495-1.038 2.141C.158 20.439.024 22.856 0 24h2.756v-2.379c.268-1.085.602-1.401.968-1.749.173-.164.352-.334.536-.596.458-.652.458-1.413.458-1.953 0-.135 0-.256.007-.358.029-.407.18-.6.251-.645-.012.034-.014.17.072.442.107.34 1.002 1.087 1.18 1.121.144.027.323.193.395.272-.072.192-.172.639 0 .883.148.211.092.439.043.637-.023.09-.043.173-.043.247 0 .115-.05.42-.102.736-.056.338-.113.687-.113.827 0 .272 0 .782.215 1.122.172.272.143 1.042.107 1.393h2.72a4.307 4.307 0 010-.748c.025-.296-.048-1.17-.109-1.91-.03-.365-.057-.697-.07-.91-.035-.646.037-.884.18-1.326.143-.441.215-1.325.143-1.495a1.057 1.057 0 01-.053-.277c-.015-.134-.03-.273-.09-.369-.086-.135-.275-.034-.358.035a.88.88 0 00-.18-.476c-.178-.238-.393-.918-.572-1.496-.132-.425-.205-.63-.292-.87a33.439 33.439 0 01-.102-.285c-.114-.326-.477-.974-.644-1.257v-1.19a.282.282 0 01.286-.238c.13 0 .25-.036.367-.072a1.1 1.1 0 01.313-.064c.128 0 .117-.06.094-.18a1.07 1.07 0 01-.022-.33c.036-.34.18-.747.358-1.189.163-.401.03-.578-.05-.684l-.022-.03c-.071-.101-.286-.17-.572-.17-.272 0-.029-.305.089-.452l.018-.023c.107-.136.25-.204.358-.102.107.102.537.34 1.181.578.438.161.446.15.575-.011.06-.077.148-.187.32-.33.43-.353.943-1.28 1.146-1.698h.286v-.442l.358-.442v-.374l.323-.68h2.255v-.067h.071v-.102h-.143v-.102h.143V4H17v-.798h-1.821v-.204h-3.867v-.136h.108V2.66l-.18-.17v-.544c-.62.011-1.854.027-1.825 0 .115-.054.048-.159 0-.204l-.752-.476a1.933 1.933 0 00-.465-.204C8.198.246 7.386.02 6.98.008 5.835-.074 5.286.495 5.155.79c-.286.435-.12 1.042 0 1.29a.236.236 0 000 .239zM8.95 2.08h-.502c-.114.326.048.52.144.577v.136l-.287.204v.238h.215l.215-.238h.573v-.34H8.95V2.08zm.859.85v-.137h.215v.068h.143v.068h-.358zM8.556 4.798l-.322-.373h.716l-.144.271v.136h-.071v.102h-.143L8.556 4.8zm2.112.578v-.34h-.143v.17h-.072v.102h-.286v.068h.501zm-1.074.816l.358.781c.215-.102.659-.36.716-.577.057-.218.072-.43.072-.51h-.144v-.17h.144l-.072-.204h-.501c.024.181-.057.571-.573.68zM8.305 8.775c-.229.028-.334.238-.358.34.287-.299.454-.17.501-.068.115-.19-.047-.26-.143-.272zM1.468 5.887c.071.113.143.394-.143.612.012-.012.057-.15.143-.612z" fill="#515B76"/></svg>
